!!!!SEGMENT: Wil3041-He_Dieu_Helayne.krn
!!!id: Wil3041
!!!AGN: Chanson
!!!voices: 3
!!!COM: Adrian Willaert
!!!OTL: He Dieu, Helayne
**kern	**kern	**kern
*part3	*part2	*part1
*staff3	*staff2	*staff1
*I"Bassus	*I"Tenor	*I"Superius
*I'B	*I'T	*I'S
*clefGv2	*clefGv2	*clefGv2
*k[]	*k[]	*k[]
*C:	*C:	*C:
*M2/1	*M2/1	*M2/1
*met(C|)	*met(C|)	*met(C|)
=1	=1	=1
2r	0r	1r
2D	.	.
[1G	.	2r
.	.	2d
=2	=2	=2
2G]	1r	1.g
2E	.	.
2E	2r	.
2C	2G	2e
=3	=3	=3
2r	1.c	2e
2F	.	2A
2E	.	2r
2D	2d	2f
=4	=4	=4
1E	2B	2e
.	2G	2c
2D	2B	1d
2F	[2A	.
=5	=5	=5
3.F	4A]	2c
.	4G	.
6F	2A	2f
3F	.	.
2C	1G	3.e
2G	.	6d
.	.	3e
=6	=6	=6
3.G	2r	2.d
6G	2B	.
3G	.	.
.	.	4g
1D	3.A	3.f#i
.	6G	6e
.	3A	3f#i
=7	=7	=7
0r	[0G	1g
.	.	2r
.	.	2d
=8	=8	=8
2r	1G]	2d
2G	.	2d
2G	1r	2d
2G	.	2d
=9	=9	=9
2G	0r	2e
2G	.	2B
1A	.	1c
=10	=10	=10
1E	0r	2B
.	.	2c
[1F	.	2.d
.	.	8cL
.	.	8BJ
=11	=11	=11
1F]	1r	2A
.	.	2A
2E	2r	2B
2F	2d	2A
=12	=12	=12
2.G	2d	2.B
.	2d	.
8FL	.	4G
8EJ	.	.
2D	2d	2A
2D	2d	2B
=13	=13	=13
2.C	1e	1c
4D	.	.
4E	1B	2r
4F	.	.
2D	.	2f
=14	=14	=14
2C	0c	2e
2F	.	2f
2E	.	2g
2F	.	4f
.	.	4e
=15	=15	=15
2G	2B	2d
2E	2c	2e
[1D	2.d	2f
.	.	[2g
.	8cL	.
.	8BJ	.
=16	=16	=16
1D]	2A	2g]
.	2A	2f#i
2r	[1G	1g
2E	.	.
=17	=17	=17
2E	1G]	2r
2.G	.	2d
.	2r	2d
4F	.	.
2D	2d	2f
=18	=18	=18
2r	1d	4f
.	.	4e
2G	.	4d
.	.	4c
2G	2d	2B
2B	[2d	2G
=19	=19	=19
4B	2d]	4d
4A	.	4c
4G	2d	4B
4F	.	4A
2E	1e	2B
2C	.	2c
=20	=20	=20
4G	1B	2d
4F	.	.
4E	.	1g
4D	.	.
2E	1c	.
2F	.	2f
=21	=21	=21
2G	2B	2d
1C	1G	2.e
.	.	4d
2F	[2A	4c
.	.	4B
=22	=22	=22
2F	2A]	2c
2G	2.G	2B
1D	.	1A
.	4F#i	.
.	2F#i	.
=	=	=
*	*M3/3%2	*
*	*met(3)	*
*	*Xtuplet	*
0G	3%4G	[0B
.	3%2d	.
*	*tuplet	*
=	=	=
*M3/1	*M3/1	*M3/1
*met(3)	*met()	*met()
!!primary-mensuration: 3
!	!	!LO:N:vis=0
1r	1d	0.B]
1r	1d	.
1G	1e	.
=23	=23	=23
1G	0d	1%3r
1G	.	.
1A	1c	.
=	=	=
*	*	*M3/1
*	*	*met(3)
0G	0B	1d
.	.	1d
1F	1r	1d
=24	=24	=24
2E	1G	1e
2F	.	.
2G	0G	0d
2A	.	.
1B	.	.
=25	=25	=25
1c	1A	1c
1d	0G	2B
.	.	2c
1B	.	2d
.	.	2e
=26	=26	=26
1A	1F	1f
1r	1E	1g
1B	1G	1e
=27	=27	=27
0B	0G	0d
1c	1A	1r
=28	=28	=28
0B	0G	1r
.	.	1d
1A	1F	1d
=	=	=
*M2/1	*M2/1	*M2/1
*met(C|)	*met(C|)	*met(C|)
2B	2E	1e
2c	2E	.
2A	2F	1d
2B	2G	.
=29	=29	=29
2G	2E	1c
2A	2F	.
1E	[1G	1B
=30	=30	=30
2B	2G]	2r
2c	4F	2e
.	4E	.
1d	2D	2f
.	2B	2g
=31	=31	=31
2r	2c	2e
2D	2d	2f
1E	2B	1g
.	2c	.
=32	=32	=32
1D	2d	2r
.	2A	2f
2r	2B	2g
2E	2c	2g
=33	=33	=33
2F	2A	2a
2G	2B	2g
2E	1c	2g
2F	.	4f
.	.	4e
=34	=34	=34
1G	[0B	1d
2r	.	1r
2G	.	.
=35	=35	=35
2G	1B]	2r
2G	.	2d
4B	2r	2d
4c	.	.
4d	2B	2d
4B	.	.
=36	=36	=36
2c	2A	4e
.	.	4f
4r	2G	4g
4E	.	4e
2D	4A	2f
.	4B	.
2C	4c	2e
.	4A	.
=37	=37	=37
4D	2B	2d
4E	.	.
4F	2.A	4c
4D	.	4d
2E	.	4c
.	4G	4B
2E	[2G	4A
.	.	4G
=38	=38	=38
2D	2G]	1A
4r	2F#i	.
4A	.	.
2B	2G	1G
2G	2d	.
=39	=39	=39
4B	2d	2r
4c	.	.
4d	2d	4r
4B	.	4g
2c	4e	2g
.	4f	.
2B	4g	2g
.	4e	.
=40	=40	=40
1A	2f	4a
.	.	4b
.	2.e	4cc
.	.	4a
2G	.	2b
.	4d	.
[2F	4d	[2a
.	4c	.
=41	=41	=41
4F]	4d	4a]
4E	4G	4g
2G	2B	1g
1D	1A	.
.	.	2f#i
=42	=42	=42
0E	0G	1g
.	.	[1e
=43	=43	=43
1C	1r	1e]
1r	1B	1d
=44	=44	=44
1E	0G	1r
1C	.	1e
=45	=45	=45
2F	0r	1c
2A	.	.
2G	.	2g
2F	.	2a
=46	=46	=46
2E	2B	2g
2D	2d	2f
2r	2c	2e
2G	2B	2d
=47	=47	=47
2F	2A	2r
2G	2G	2d
2r	1B	2G
2G	.	2d
=48	=48	=48
2C	1G	2c
2G	.	2B
2F	2A	2A
2E	2G	[2c
=49	=49	=49
1D	2G	4c]
.	.	8BL
.	.	8AJ
.	2F	2B
1C	1G	1c
=50	=50	=50
3%4G	3%4B	3%4d
3%2E	3%2c	3%2G
=51	=51	=51
3%2D	3%2B	3%4d
3%2F	3%4A	.
3%2F	.	3%2c
=52	=52	=52
3%2G	3%4G	3%2B
3%4D	.	3%4A
.	3%2F#i	.
=53	=53	=53
0E	0G	1G
.	.	[1e
=54	=54	=54
1C	1r	1e]
1r	1B	1d
=55	=55	=55
1E	0G	1r
1C	.	1e
=56	=56	=56
2F	0r	1c
2A	.	.
2G	.	2g
2F	.	2a
=57	=57	=57
2E	2B	2g
2D	2d	2f
2r	2c	2e
2G	2B	2d
=58	=58	=58
2F	2A	2r
2G	2G	2d
2r	1B	2G
2G	.	2d
=59	=59	=59
2C	1G	2c
2G	.	2B
2F	2A	2A
2E	2G	[2c
=60	=60	=60
1D	2G	4c]
.	.	8BL
.	.	8AJ
.	2F	2B
1C	1G	1c
=61	=61	=61
3%4G	3%4B	3%4d
3%2E	3%2c	3%2G
=62	=62	=62
3%2D	3%2B	3%4d
3%2F	3%4A	.
3%2F	.	3%2c
=63	=63	=63
3%2G	3%4G	3%2B
3%4D	.	3%4A
.	3%2F#i	.
=64	=64	=64
00Gl	00Gl	00Gl
==	==	==
*-	*-	*-
!!!system-decoration: [*]
!!!RDF**kern: i = editorial accidental
!!!RDF**kern: l = terminal long
!!!ENC: Benjamin Ory
!!!END: 2024/1/24
!!!EED: Benjamin Ory
!!!EEV: 2024/01/24
!!!YEC: Copyright 2024 Benjamin Ory, All Rights Reserved
!!!ONB: Translated from MusicXML on 2024/01/24
